assets/history.svg

<svg fill="none" height="18" viewBox="0 0 20 18" width="20" xmlns="http://www.w3.org/2000/svg" xmlns:xlink="http://www.w3.org/1999/xlink"><mask id="a" fill="#000" height="18" maskUnits="userSpaceOnUse" width="20" x="0" y="0"><path d="m0 0h20v18h-20z" fill="#fff"/><path clip-rule="evenodd" d="m5.2545 3.33962c3.14118-3.119493 8.2504-3.119493 11.3902 0 3.1404 3.12022 3.1404 8.19728 0 11.31748-1.5214 1.5108-3.5434 2.3434-5.6948 2.3434-2.15053 0-4.17335-.8326-5.6954-2.3434-.24601-.2451-.24601-.6426 0-.8877.24601-.2459.64678-.2459.89352 0 1.28334 1.2743 2.98861 1.9757 4.80188 1.9757 1.8141 0 3.5201-.7014 4.8012-1.9757 2.6477-2.6307 2.6477-6.91138 0-9.54202s-6.95538-2.63064-9.60308 0c-1.14099 1.13364-1.82207 2.61106-1.95785 4.19583l.80737-.74415c.25623-.23645.65554-.22049.89352.03264.23725.25385.22192.65131-.03358.88703l-1.9688 1.81617c-.12191.1124-.27594.1675-.42924.1675-.17009 0-.33872-.0667-.46282-.2002l-1.82791-1.95536c-.237254-.25386-.222654-.65132.03358-.88704.25476-.23572.6548-.22121.89205.03264l.82052.87833c.13213-1.93073.95411-3.73454 2.33964-5.11115zm6.0099 5.53059 2.4995.00073c.3482 0 .63.28141.6307.62665 0 .34669-.2825.62741-.6307.62741h-3.1295-.0008c-.3482 0-.6307-.28072-.6307-.62741v-4.88558c0-.34669.2825-.62666.6307-.62666.3475 0 .6308.27924.6308.62666z" fill="#000" fill-rule="evenodd"/></mask><g fill="#fff"><path clip-rule="evenodd" d="m5.2545 3.33962c3.14118-3.119493 8.2504-3.119493 11.3902 0 3.1404 3.12022 3.1404 8.19728 0 11.31748-1.5214 1.5108-3.5434 2.3434-5.6948 2.3434-2.15053 0-4.17335-.8326-5.6954-2.3434-.24601-.2451-.24601-.6426 0-.8877.24601-.2459.64678-.2459.89352 0 1.28334 1.2743 2.98861 1.9757 4.80188 1.9757 1.8141 0 3.5201-.7014 4.8012-1.9757 2.6477-2.6307 2.6477-6.91138 0-9.54202s-6.95538-2.63064-9.60308 0c-1.14099 1.13364-1.82207 2.61106-1.95785 4.19583l.80737-.74415c.25623-.23645.65554-.22049.89352.03264.23725.25385.22192.65131-.03358.88703l-1.9688 1.81617c-.12191.1124-.27594.1675-.42924.1675-.17009 0-.33872-.0667-.46282-.2002l-1.82791-1.95536c-.237254-.25386-.222654-.65132.03358-.88704.25476-.23572.6548-.22121.89205.03264l.82052.87833c.13213-1.93073.95411-3.73454 2.33964-5.11115zm6.0099 5.53059 2.4995.00073c.3482 0 .63.28141.6307.62665 0 .34669-.2825.62741-.6307.62741h-3.1295-.0008c-.3482 0-.6307-.28072-.6307-.62741v-4.88558c0-.34669.2825-.62666.6307-.62666.3475 0 .6308.27924.6308.62666z" fill-rule="evenodd"/><path d="m16.6447 3.33962-.0705.07094zm-11.3902 0-.07046-.07096-.00002.00002zm11.3902 11.31748.0704.071zm-11.3902 0-.07058.0709.00014.0001zm0-.8877.07059.0708.00011-.0001zm.89352 0-.07059.0708.00013.0001zm9.60308 0-.0704-.071-.0001.0001zm0-9.54202-.0704.07094zm-9.60308 0 .07048.07094zm-1.95785 4.19583-.09964-.00854-.02199.25663.1894-.17456zm.80737-.74415.06778.07353.00004-.00004zm.89352.03264.07306-.06829-.0002-.00021zm-.03358.88703.06781.0735zm-1.9688 1.81617.06779.0735h.00001zm-.89206-.0327.07323-.0681-.00018-.0002zm-1.82791-1.95536-.07306.06828v.00001zm.03358-.88704.0677.07359.00021-.00019zm.89205.03264.07308-.06827-.00002-.00001zm.82052.87833-.07307.06827.15712.16819.01572-.22963zm10.84904.42017v.1zm-2.4995-.00073h-.1v.09997l.0999.00003zm3.1302.62738h.1v-.00021zm2.3205-6.22891c-3.1787-3.158249-8.35089-3.158226-11.53106-.00002l.14093.14191c3.10219-3.08077 8.14853-3.080747 11.24923-.00001zm0 11.45942c3.1799-3.1594 3.1799-8.3001 0-11.45942l-.1409.14188c3.1011 3.08111 3.1011 8.09454 0 11.17564zm-5.7652 2.3724c2.1777 0 4.2251-.843 5.7652-2.3724l-.1409-.1419c-1.5025 1.4921-3.4993 2.3143-5.6243 2.3143zm-5.76584-2.3724c1.54082 1.5294 3.58899 2.3724 5.76584 2.3724v-.2c-2.1242 0-4.12168-.8222-5.62495-2.3144zm-.00014-1.0296c-.28523.2843-.28523.7452 0 1.0295l.14117-.1417c-.20679-.2061-.20679-.54 0-.7461zm1.03469 0c-.28571-.2847-.74968-.2848-1.0348.0001l.14139.1415c.2069-.2068.54446-.207.75223.0001zm4.73129 1.9466c-1.78696 0-3.46688-.691-4.73142-1.9467l-.14092.1419c1.30213 1.293 3.03277 2.0048 4.87234 2.0048zm4.7307-1.9466c-1.2623 1.2556-2.9429 1.9466-4.7307 1.9466v.2c1.8404 0 3.5718-.7118 4.8718-2.0048zm.0001-9.40018c2.6083 2.59154 2.6083 6.80858 0 9.40008l.1409.1419c2.6871-2.6698 2.6871-7.01411 0-9.68386zm-9.4622 0c2.60871-2.5919 6.8535-2.5919 9.4622 0l.1409-.14188c-2.6867-2.66939-7.05736-2.66939-9.74406 0zm-1.9287 4.13343c.13378-1.56141.80468-3.01665 1.9287-4.13343l-.14096-.14188c-1.15796 1.15049-1.84923 2.6501-1.98701 4.25823zm.63997-.82622-.80738.74415.13555.14706.80738-.74415zm1.03415.03767c-.27529-.29282-.73735-.31155-1.03419-.03763l.13563.14698c.21562-.19897.55218-.1858.75284.02764zm-.03863 1.02903c.29613-.27321.3141-.73429.03883-1.02882l-.14612.13657c.19923.21317.18654.54702-.02833.74525zm-1.96881 1.81617 1.96881-1.81617-.13561-.147-1.96881 1.81617zm-.49704.194c.17729 0 .35584-.0638.49703-.194l-.13558-.147c-.10263.0946-.23215.141-.36145.141zm-.53605-.2321c.14409.155.33979.2321.53605.2321v-.2c-.14392 0-.28548-.0563-.38959-.1683zm-1.82774-1.95517 1.82792 1.95537.1461-.1366-1.82791-1.95535zm.03893-1.02892c-.297133.27335-.314073.73451-.03893 1.02891l.14612-.13657c-.19936-.21331-.18711-.54707.02822-.74516zm1.03282.03795c-.2748-.29404-.73784-.31088-1.03303-.03776l.13583.1468c.21435-.19832.55139-.18615.75108.02752zm.82054.87835-.82052-.87834-.14615.13653.82052.87834zm2.19608-5.11383c-1.40272 1.39368-2.23514 3.22026-2.36893 5.17526l.19954.01366c.13047-1.90647.942-3.6875 2.31036-5.04704zm8.57988 5.50226-2.4995-.00073-.0001.2 2.4996.00073zm.7307.72644c-.0008-.40065-.3276-.72644-.7307-.72644v.2c.2933 0 .5301.23703.5307.52686zm-.7307.72762c.4029 0 .7307-.32496.7307-.72741h-.2c0 .29093-.2372.52741-.5307.52741zm-3.1295 0h3.1295v-.2h-3.1295zm-.0008 0h.0008v-.2h-.0008zm-.73067-.72741c0 .40245.32777.72741.73067.72741v-.2c-.2935 0-.5307-.23648-.5307-.52741zm0-4.88558v4.88558h.19997v-4.88558zm.73067-.72666c-.4027 0-.73067.32405-.73067.72666h.19997c0-.29078.2371-.52666.5307-.52666zm.7308.72666c0-.40348-.3289-.72666-.7308-.72666v.2c.2931 0 .5308.2353.5308.52666zm0 4.2582v-4.2582h-.2v4.2582z" mask="url(#a)"/></g></svg>

<svg width="20" height="18" viewBox="0 0 20 18" fill="none" xmlns="http://www.w3.org/2000/svg">
<mask id="path-1-outside-1_4063_18438" maskUnits="userSpaceOnUse" x="0" y="0" width="20" height="18" fill="black">
<rect fill="white" width="20" height="18"/>
<path fill-rule="evenodd" clip-rule="evenodd" d="M5.2545 3.33962C8.39568 0.220127 13.5049 0.220127 16.6447 3.33962C19.7851 6.45984 19.7851 11.5369 16.6447 14.6571C15.1233 16.1679 13.1013 17.0005 10.9499 17.0005C8.79937 17.0005 6.77655 16.1679 5.2545 14.6571C5.00849 14.412 5.00849 14.0145 5.2545 13.7694C5.50051 13.5235 5.90128 13.5235 6.14802 13.7694C7.43136 15.0437 9.13663 15.7451 10.9499 15.7451C12.764 15.7451 14.47 15.0437 15.7511 13.7694C18.3988 11.1387 18.3988 6.85802 15.7511 4.22738C13.1034 1.59674 8.79572 1.59674 6.14802 4.22738C5.00703 5.36102 4.32595 6.83844 4.19017 8.42321L4.99754 7.67906C5.25377 7.44261 5.65308 7.45857 5.89106 7.7117C6.12831 7.96555 6.11298 8.36301 5.85748 8.59873L3.88868 10.4149C3.76677 10.5273 3.61274 10.5824 3.45944 10.5824C3.28935 10.5824 3.12072 10.5157 2.99662 10.3822L1.16871 8.42684C0.931456 8.17298 0.946056 7.77552 1.20229 7.5398C1.45705 7.30408 1.85709 7.31859 2.09434 7.57244L2.91486 8.45077C3.04699 6.52004 3.86897 4.71623 5.2545 3.33962ZM11.2644 8.87021L13.7639 8.87094C14.1121 8.87094 14.3939 9.15235 14.3946 9.49759C14.3946 9.84428 14.1121 10.125 13.7639 10.125H10.6344H10.6336C10.2854 10.125 10.0029 9.84428 10.0029 9.49759V4.61201C10.0029 4.26532 10.2854 3.98535 10.6336 3.98535C10.9811 3.98535 11.2644 4.26459 11.2644 4.61201V8.87021Z"/>
</mask>
<path fill-rule="evenodd" clip-rule="evenodd" d="M5.2545 3.33962C8.39568 0.220127 13.5049 0.220127 16.6447 3.33962C19.7851 6.45984 19.7851 11.5369 16.6447 14.6571C15.1233 16.1679 13.1013 17.0005 10.9499 17.0005C8.79937 17.0005 6.77655 16.1679 5.2545 14.6571C5.00849 14.412 5.00849 14.0145 5.2545 13.7694C5.50051 13.5235 5.90128 13.5235 6.14802 13.7694C7.43136 15.0437 9.13663 15.7451 10.9499 15.7451C12.764 15.7451 14.47 15.0437 15.7511 13.7694C18.3988 11.1387 18.3988 6.85802 15.7511 4.22738C13.1034 1.59674 8.79572 1.59674 6.14802 4.22738C5.00703 5.36102 4.32595 6.83844 4.19017 8.42321L4.99754 7.67906C5.25377 7.44261 5.65308 7.45857 5.89106 7.7117C6.12831 7.96555 6.11298 8.36301 5.85748 8.59873L3.88868 10.4149C3.76677 10.5273 3.61274 10.5824 3.45944 10.5824C3.28935 10.5824 3.12072 10.5157 2.99662 10.3822L1.16871 8.42684C0.931456 8.17298 0.946056 7.77552 1.20229 7.5398C1.45705 7.30408 1.85709 7.31859 2.09434 7.57244L2.91486 8.45077C3.04699 6.52004 3.86897 4.71623 5.2545 3.33962ZM11.2644 8.87021L13.7639 8.87094C14.1121 8.87094 14.3939 9.15235 14.3946 9.49759C14.3946 9.84428 14.1121 10.125 13.7639 10.125H10.6344H10.6336C10.2854 10.125 10.0029 9.84428 10.0029 9.49759V4.61201C10.0029 4.26532 10.2854 3.98535 10.6336 3.98535C10.9811 3.98535 11.2644 4.26459 11.2644 4.61201V8.87021Z" fill="white"/>
<path d="M16.6447 3.33962L16.5742 3.41056H16.5742L16.6447 3.33962ZM5.2545 3.33962L5.18404 3.26866L5.18402 3.26868L5.2545 3.33962ZM16.6447 14.6571L16.7151 14.7281L16.7151 14.7281L16.6447 14.6571ZM5.2545 14.6571L5.18392 14.728L5.18406 14.7281L5.2545 14.6571ZM5.2545 13.7694L5.32509 13.8402L5.3252 13.8401L5.2545 13.7694ZM6.14802 13.7694L6.07743 13.8402L6.07756 13.8403L6.14802 13.7694ZM15.7511 13.7694L15.6807 13.6984L15.6806 13.6985L15.7511 13.7694ZM15.7511 4.22738L15.6807 4.29832H15.6807L15.7511 4.22738ZM6.14802 4.22738L6.2185 4.29832L6.14802 4.22738ZM4.19017 8.42321L4.09053 8.41467L4.06854 8.6713L4.25794 8.49674L4.19017 8.42321ZM4.99754 7.67906L5.06532 7.75259L5.06536 7.75255L4.99754 7.67906ZM5.89106 7.7117L5.96412 7.64341L5.96392 7.6432L5.89106 7.7117ZM5.85748 8.59873L5.92529 8.67223L5.92529 8.67223L5.85748 8.59873ZM3.88868 10.4149L3.95647 10.4884L3.95648 10.4884L3.88868 10.4149ZM2.99662 10.3822L3.06985 10.3141L3.06967 10.3139L2.99662 10.3822ZM1.16871 8.42684L1.09565 8.49512L1.09565 8.49513L1.16871 8.42684ZM1.20229 7.5398L1.26999 7.61339L1.2702 7.6132L1.20229 7.5398ZM2.09434 7.57244L2.16742 7.50417L2.1674 7.50416L2.09434 7.57244ZM2.91486 8.45077L2.84179 8.51904L2.99891 8.68723L3.01463 8.4576L2.91486 8.45077ZM13.7639 8.87094L13.7639 8.97094H13.7639V8.87094ZM11.2644 8.87021H11.1644V8.97018L11.2643 8.97021L11.2644 8.87021ZM14.3946 9.49759H14.4946L14.4946 9.49738L14.3946 9.49759ZM16.7151 3.26868C13.5364 0.110431 8.36421 0.110454 5.18404 3.26866L5.32497 3.41057C8.42716 0.3298 13.4735 0.329823 16.5742 3.41056L16.7151 3.26868ZM16.7151 14.7281C19.895 11.5687 19.895 6.428 16.7151 3.26868L16.5742 3.41056C19.6753 6.49167 19.6753 11.5051 16.5742 14.5862L16.7151 14.7281ZM10.9499 17.1005C13.1276 17.1005 15.175 16.2575 16.7151 14.7281L16.5742 14.5862C15.0717 16.0783 13.0749 16.9005 10.9499 16.9005V17.1005ZM5.18406 14.7281C6.72488 16.2575 8.77305 17.1005 10.9499 17.1005V16.9005C8.8257 16.9005 6.82822 16.0783 5.32495 14.5861L5.18406 14.7281ZM5.18392 13.6985C4.89869 13.9828 4.89869 14.4437 5.18392 14.728L5.32509 14.5863C5.1183 14.3802 5.1183 14.0463 5.32509 13.8402L5.18392 13.6985ZM6.21861 13.6985C5.9329 13.4138 5.46893 13.4137 5.18381 13.6986L5.3252 13.8401C5.5321 13.6333 5.86966 13.6331 6.07743 13.8402L6.21861 13.6985ZM10.9499 15.6451C9.16294 15.6451 7.48302 14.9541 6.21848 13.6984L6.07756 13.8403C7.37969 15.1333 9.11033 15.8451 10.9499 15.8451V15.6451ZM15.6806 13.6985C14.4183 14.9541 12.7377 15.6451 10.9499 15.6451V15.8451C12.7903 15.8451 14.5217 15.1333 15.8217 13.8403L15.6806 13.6985ZM15.6807 4.29832C18.289 6.88986 18.289 11.1069 15.6807 13.6984L15.8216 13.8403C18.5087 11.1705 18.5087 6.82619 15.8216 4.15644L15.6807 4.29832ZM6.2185 4.29832C8.82721 1.70642 13.072 1.70642 15.6807 4.29832L15.8216 4.15644C13.1349 1.48705 8.76424 1.48705 6.07754 4.15644L6.2185 4.29832ZM4.2898 8.43175C4.42358 6.87034 5.09448 5.4151 6.2185 4.29832L6.07754 4.15644C4.91958 5.30693 4.22831 6.80654 4.09053 8.41467L4.2898 8.43175ZM4.92977 7.60553L4.12239 8.34968L4.25794 8.49674L5.06532 7.75259L4.92977 7.60553ZM5.96392 7.6432C5.68863 7.35038 5.22657 7.33165 4.92973 7.60557L5.06536 7.75255C5.28098 7.55358 5.61754 7.56675 5.8182 7.78019L5.96392 7.6432ZM5.92529 8.67223C6.22142 8.39902 6.23939 7.93794 5.96412 7.64341L5.818 7.77998C6.01723 7.99315 6.00454 8.327 5.78967 8.52523L5.92529 8.67223ZM3.95648 10.4884L5.92529 8.67223L5.78968 8.52523L3.82087 10.3414L3.95648 10.4884ZM3.45944 10.6824C3.63673 10.6824 3.81528 10.6186 3.95647 10.4884L3.82089 10.3414C3.71826 10.436 3.58874 10.4824 3.45944 10.4824V10.6824ZM2.92339 10.4503C3.06748 10.6053 3.26318 10.6824 3.45944 10.6824V10.4824C3.31552 10.4824 3.17396 10.4261 3.06985 10.3141L2.92339 10.4503ZM1.09565 8.49513L2.92357 10.4505L3.06967 10.3139L1.24176 8.35855L1.09565 8.49513ZM1.13458 7.46621C0.837447 7.73956 0.820507 8.20072 1.09565 8.49512L1.24177 8.35855C1.04241 8.14524 1.05466 7.81148 1.26999 7.61339L1.13458 7.46621ZM2.1674 7.50416C1.8926 7.21012 1.42956 7.19328 1.13437 7.4664L1.2702 7.6132C1.48455 7.41488 1.82159 7.42705 2.02128 7.64072L2.1674 7.50416ZM2.98794 8.38251L2.16742 7.50417L2.02127 7.6407L2.84179 8.51904L2.98794 8.38251ZM5.18402 3.26868C3.7813 4.66236 2.94888 6.48894 2.81509 8.44394L3.01463 8.4576C3.1451 6.55113 3.95663 4.7701 5.32499 3.41056L5.18402 3.26868ZM13.7639 8.77094L11.2644 8.77021L11.2643 8.97021L13.7639 8.97094L13.7639 8.77094ZM14.4946 9.49738C14.4938 9.09673 14.167 8.77094 13.7639 8.77094V8.97094C14.0572 8.97094 14.294 9.20797 14.2946 9.4978L14.4946 9.49738ZM13.7639 10.225C14.1668 10.225 14.4946 9.90004 14.4946 9.49759H14.2946C14.2946 9.78852 14.0574 10.025 13.7639 10.025V10.225ZM10.6344 10.225H13.7639V10.025H10.6344V10.225ZM10.6336 10.225H10.6344V10.025H10.6336V10.225ZM9.90293 9.49759C9.90293 9.90004 10.2307 10.225 10.6336 10.225V10.025C10.3401 10.025 10.1029 9.78852 10.1029 9.49759H9.90293ZM9.90293 4.61201V9.49759H10.1029V4.61201H9.90293ZM10.6336 3.88535C10.2309 3.88535 9.90293 4.2094 9.90293 4.61201H10.1029C10.1029 4.32123 10.34 4.08535 10.6336 4.08535V3.88535ZM11.3644 4.61201C11.3644 4.20853 11.0355 3.88535 10.6336 3.88535V4.08535C10.9267 4.08535 11.1644 4.32065 11.1644 4.61201H11.3644ZM11.3644 8.87021V4.61201H11.1644V8.87021H11.3644Z" fill="white" mask="url(#path-1-outside-1_4063_18438)"/>
</svg>
